X: 74
%
U:~=!turn!
T: Cadgers of the Canongate
C:
O:Scotland
B:Keith Norman MacDonald : "The Skye collection of the best reels & strathspeys extant" : 1887
Z:Ralph Palmer
R:Reel
M:C
L:1/8
K:G
B | GBGB (de/f/) ge | dBgB A/A/A (AB) | GBGB (d/e/f) ge | dBgB G/G/G G :|
g | b>age g>edB | GBgB A/A/A Aa | b>age g>edB | GBgB G/G/G Gg |
b>age g>edB GBgB A/A/A Aa | bgae gdeB | dBgB G/G/GG |]


